packages/symbols/svgs/solid/arrow-down-to-bracket-solid.svg

<svg width="16" height="16" viewBox="0 0 16 16" fill="none" xmlns="http://www.w3.org/2000/svg">
<path fill-rule="evenodd" clip-rule="evenodd" d="M8.69998 11.7C8.49998 11.9 8.29998 12 7.99998 12C7.69998 12 7.49998 11.9 7.29998 11.7L1.59998 6L2.99998 4.6L6.99998 8.6V0L8.99998 0V8.6L13 4.6L14.4 6L8.69998 11.7ZM2 14H14V11H16V15C16 15.6 15.6 16 15 16H1C0.4 16 0 15.6 0 15L0 11H2V14Z" fill="black"/>
</svg>

<svg width="16" height="16" viewBox="0 0 16 16" xmlns="http://www.w3.org/2000/svg"><path fill-rule="evenodd" clip-rule="evenodd" d="M8.7 11.7c-.2.2-.4.3-.7.3-.3 0-.5-.1-.7-.3L1.6 6 3 4.6l4 4V0h2v8.6l4-4L14.4 6l-5.7 5.7ZM2 14h12v-3h2v4c0 .6-.4 1-1 1H1c-.6 0-1-.4-1-1v-4h2v3Z"/></svg>
